packages/icons/svg/Fill/arrowhead-right.svg

<svg width="24" height="24" viewBox="0 0 24 24" fill="none" xmlns="http://www.w3.org/2000/svg">
<g id="Icon/Fill/arrowhead-right">
<path id="Mask" fill-rule="evenodd" clip-rule="evenodd" d="M13.9513 5.373L18.7793 11.373C19.0783 11.744 19.0733 12.274 18.7683 12.64L13.7683 18.64C13.5703 18.877 13.2863 19 12.9993 19C12.7743 19 12.5473 18.924 12.3603 18.768C11.9353 18.415 11.8783 17.784 12.2323 17.36L16.7083 11.989L12.3923 6.627C12.0463 6.197 12.1143 5.567 12.5453 5.221C12.9753 4.874 13.6043 4.943 13.9513 5.373ZM5.54523 5.221C5.97523 4.875 6.60423 4.943 6.95123 5.373L11.7792 11.373C12.0772 11.744 12.0732 12.274 11.7682 12.64L6.76823 18.64C6.57023 18.877 6.28623 19 5.99923 19C5.77423 19 5.54723 18.924 5.36023 18.768C4.93523 18.415 4.87823 17.784 5.23223 17.36L9.70723 11.989L5.39223 6.627C5.04623 6.197 5.11523 5.567 5.54523 5.221Z" fill="#000000"/>
</g>
</svg>

<svg fill="none" height="24" viewBox="0 0 24 24" width="24" xmlns="http://www.w3.org/2000/svg"><path clip-rule="evenodd" d="m13.9514 5.37276 4.828 6.00004c.299.371.294.901-.011 1.267l-5 6c-.198.237-.482.36-.769.36-.225 0-.452-.076-.639-.232-.425-.353-.482-.984-.128-1.408l4.476-5.371-4.316-5.36204c-.346-.43-.278-1.06.153-1.406.43-.347 1.059-.278 1.406.152zm-8.40618-.152c.43-.346 1.059-.278 1.406.152l4.82798 6.00004c.298.371.294.901-.011 1.267l-4.99998 6c-.198.237-.482.36-.769.36-.225 0-.452-.076-.639-.232-.425-.353-.482-.984-.128-1.408l4.475-5.371-4.315-5.36204c-.346-.43-.277-1.06.153-1.406z" fill="#6b7280" fill-rule="evenodd"/></svg>
